dist/img/fb-icon.svg

<?xml version="1.0" encoding="UTF-8"?>
<svg width="25px" height="24px" viewBox="0 0 25 24" version="1.1" xmlns="http://www.w3.org/2000/svg" xmlns:xlink="http://www.w3.org/1999/xlink">
    <!-- Generator: Sketch 46.2 (44496) - http://www.bohemiancoding.com/sketch -->
    <title>Shape</title>
    <desc>Created with Sketch.</desc>
    <defs></defs>
    <g id="SBLY-homepage" stroke="none" stroke-width="1" fill="none" fill-rule="evenodd">
        <g id="sbly-homepage" transform="translate(-1299.000000, -44.000000)" fill="#174A8F">
            <g id="01-header">
                <g id="Facebook" transform="translate(1299.000000, 44.000000)">
                    <path d="M22.7305052,0 L1.3795052,0 C0.647505197,0 0.055005197,0.5925 0.055005197,1.3245 L0.055005197,22.6755 C0.055005197,23.4075 0.647505197,24 1.3795052,24 L12.8740052,24 L12.8740052,14.706 L9.7450052,14.706 L9.7450052,11.085 L12.8740052,11.085 L12.8740052,8.4105 C12.8740052,5.3115 14.7670052,3.6255 17.5330052,3.6255 C18.8575052,3.6255 19.9960052,3.7215 20.3275052,3.7665 L20.3275052,7.0065 L18.4075052,7.0065 C16.9075052,7.0065 16.6150052,7.7205 16.6150052,8.7705 L16.6150052,11.0805 L20.2000052,11.0805 L19.7350052,14.7045 L16.6150052,14.7045 L16.6150052,24 L22.7305052,24 C23.4625052,24 24.0550052,23.4075 24.0550052,22.6755 L24.0550052,1.3245 C24.0550052,0.5925 23.4625052,0 22.7305052,0" id="Shape"></path>
                </g>
            </g>
        </g>
    </g>
</svg>

<svg class="fb-icon" width="25" height="24" viewBox="0 0 25 24" xmlns="http://www.w3.org/2000/svg">
  <title>
    Shape
  </title>
  <path d="M22.7305052 0h-21.351c-.732 0-1.3245.5925-1.3245 1.3245v21.351c0 .732.5925 1.3245 1.3245 1.3245h11.4945v-9.294h-3.129v-3.621h3.129V8.4105c0-3.099 1.893-4.785 4.659-4.785 1.3245 0 2.463.096 2.7945.141v3.24h-1.92c-1.5 0-1.7925.714-1.7925 1.764v2.31h3.585l-.465 3.624h-3.12V24h6.1155c.732 0 1.3245-.5925 1.3245-1.3245V1.3245c0-.732-.5925-1.3245-1.3245-1.3245" fill="#174A8F" fill-rule="evenodd"/>
</svg>
